X: 40007
T: Three Merry Sisters Of Fate, The
R: reel
M: 4/4
K: Dmajor
~d3f ecde|fB~B2 dBAB|~d3f edcd|eA~A2 eAce|
d2fd caec|B2 (3dcB fBBc|defa edcB|A2 (3cBA eAce||
|:a2^ga faea|fB~B2 fBdf|affe afec|A2 (3cBA eAce:|

